X:1
T:Title
%%score { ( 1 4 ) | ( 2 3 ) }
L:1/8
Q:1/4=100
M:6/8
K:Eb
V:1 treble nm="Grand Piano"
V:4 treble 
V:2 bass 
V:3 bass 
V:1
 [GB][GB][GB] [GB][Gc][Ad] | [Ge]2 [EG] .[EB]3 | [GB]2 [GB] [FA][GB][FA] | [EG]6 | %4
w: D.~O.~Teasley * * * * *||||
 [Ec]2 [Ec] [Ec][Ed][Ee] |[M:7/8] [Ee]2 z [G,EG]3 [=A,E_G] |[M:3/4] [B,EG]2 [EGB][B,EG] E[A,DF] | %7
w: |||
 [G,E]6 | [GB]4 z2 | [GB]6 | [FA]4 z2 | [EG]6 | [Ec]2 [Ec][Ec] [Ed][Ee] | %13
w: ||||||
[M:7/8] [Ee]2 z [G,EG]3 [=A,E_G] |[M:3/4] [B,EG]2 [EGB][B,EG] [G,B,E][A,B,F] | E6 |] %16
w: |||
V:2
 [E,E][E,E][E,E] [E,E][E,D][E,C] | [E,B,]2 [E,B,] .[E,G,]3 | [E,B,]2 [E,B,] [B,,B,]2 [B,,B,] | %3
 [E,B,]6 | [A,,A,]2 [A,,A,] [A,,A,][B,,A,][C,A,] |[M:7/8] z2 E C,3 C, |[M:3/4] B,,2 .B,,2 G,B,, | %7
 E,6 | E,E, E,E, E,E, | E,E, E, .E,3 | B,,D, F,B,, B,,B,, | E,E, E, .E,3 | %12
 [A,,A,]2 [A,,A,][A,,A,] [B,,A,][C,A,] |[M:7/8] z2 E C,3 =B,, |[M:3/4] B,,2 B,,B,, B,,B,, | %15
 z B, A, .G,3 |] %16
V:3
 x6 | x6 | x6 | x6 | x6 |[M:7/8] [E,G,]3 z z z2 |[M:3/4] z2 z .B,,3 | x6 | x6 | x6 | x6 | x6 | x6 | %13
[M:7/8] [E,G,]3 z z z2 |[M:3/4] x6 | E,6 |] %16
V:4
 x6 | x6 | x6 | x6 | x6 |[M:7/8] x7 |[M:3/4] x6 | x6 | EE EE [EAc][B,EG] | EE E .B,3 | %10
 B,B, B,B, [B,GB][B,F] | B,B, B, .B,3 | x6 |[M:7/8] x7 |[M:3/4] x6 | [G,B,]D C .B,3 |] %16

